X:125
T: Qing si niao
N: C0175
O: China, Zhejiang, Lanxi
S: III, 642, 1)]
N: Gehoert auch zur Ballade: Ein jung verheiratetes Maedchen geht
N: zurueck in ihr Elternhaus, um sich dort ueber ihre Schwieger-
N: Eltern zu beklagen. Dort spricht sie mit ihrer Schwaegerin, die
N: bei ihren Eltern lebt aber dieselben Klagen hat.
N: Saengerin: Huang Bai
N: Auf dem Band hoert man im Hintergrund das Telefon, das wegen zu
N: vieler Stoerungen neben die Gabel gelegt wurde.
R: Shange. Fun ku]
M: 2/4
L: 1/16
K: F
F2F2A2A2 | z2c2A3c | A4A2G2 | F4
G2F2 | G4A2G2 | F2G2F2D2 | D4z4
c2A2c2A2 | F2G2F2G2 | F4
F2D2 | F4A2G2 | F4F2D2 | D4z4
D2F2D2F2 | z2c2A2c2 | A4A2G2 | F4
G2F2 | G4A2G2 | F4F2D2 | D4z4

